X:477
T:Boyne Water. EHo.477
A:England; East Yorkshire
M:C
L:1/8
Q:1/2=80
B:Edward Holmes MS, c1846, Beverley, Yorkshire.
N:Key signature is'A' but ends on 'E'??
O:
Z:Village Music Project 2018, Jake Wade. Beverley, East Yorks
K:A
ya2 | f3e fgaf | edcB A2Bc | d2cB f2ec | B3A F2a2 |
fefg a2gf | edcB BABc | d2cB f2ec | B3 AF2 :|
|: A2 | A2ab a3a | abaf e2a2 | fbc'b b3c' | bc'ba f3g |
agab a2gf | edcB BABc | d2cB f2ec | "tr"B3 AF2 :|

